SVG/ico__darkmode.svg

<svg xmlns="http://www.w3.org/2000/svg" viewBox="0 0 240 240">
  <path d="M196.47,96.43c-3.49,7.74-9.37,14.16-16.71,18.34-5.83,3.32-12.57,5.23-19.76,5.23-22.09,0-40-17.91-40-40,0-7.19,1.91-13.93,5.23-19.76,4.18-7.33,10.6-13.21,18.34-16.71-7.45-2.29-15.36-3.53-23.57-3.53-1.63,0-3.24.06-4.85.16-41.92,2.51-75.15,37.29-75.15,79.84s35.82,80,80,80,77.33-33.23,79.84-75.15c.1-1.61.16-3.22.16-4.85,0-8.2-1.24-16.12-3.53-23.57ZM120,180c-33.14,0-60-26.86-60-60,0-27.08,17.94-49.96,42.58-57.42-1.67,5.51-2.58,11.36-2.58,17.42,0,33.14,26.86,60,60,60,6.06,0,11.91-.91,17.42-2.58-7.47,24.64-30.35,42.58-57.42,42.58Z"/>
</svg>

<svg width="240" height="240" viewBox="0 0 240 240" fill="none" xmlns="http://www.w3.org/2000/svg">
<path d="M196.47 96.43C192.98 104.17 187.1 110.59 179.76 114.77C173.93 118.09 167.19 120 160 120C137.91 120 120 102.09 120 80C120 72.81 121.91 66.07 125.23 60.24C129.41 52.91 135.83 47.03 143.57 43.53C136.12 41.24 128.21 40 120 40C118.37 40 116.76 40.06 115.15 40.16C73.23 42.67 40 77.45 40 120C40 162.55 75.82 200 120 200C164.18 200 197.33 166.77 199.84 124.85C199.94 123.24 200 121.63 200 120C200 111.8 198.76 103.88 196.47 96.43ZM120 180C86.86 180 60 153.14 60 120C60 92.92 77.94 70.04 102.58 62.58C100.91 68.09 100 73.94 100 80C100 113.14 126.86 140 160 140C166.06 140 171.91 139.09 177.42 137.42C169.95 162.06 147.07 180 120 180Z" fill="black"/>
</svg>
